icons/svg/subway/subway_mexico.svg

<?xml version="1.0" encoding="UTF-8" standalone="no"?>
<svg
   xmlns:dc="http://purl.org/dc/elements/1.1/"
   xmlns:cc="http://creativecommons.org/ns#"
   xmlns:rdf="http://www.w3.org/1999/02/22-rdf-syntax-ns#"
   xmlns:svg="http://www.w3.org/2000/svg"
   xmlns="http://www.w3.org/2000/svg"
   xmlns:sodipodi="http://sodipodi.sourceforge.net/DTD/sodipodi-0.dtd"
   xmlns:inkscape="http://www.inkscape.org/namespaces/inkscape"
   width="16"
   height="16"
   id="svg2"
   version="1.1"
   inkscape:version="0.91 r13725"
   sodipodi:docname="subway_mexico.svg">
  <defs
     id="defs13">
    <linearGradient
       gradientTransform="matrix(0.08596979,0,0,0.08596979,0.67480439,1.9432845)"
       x1="87.101639"
       y1="121.69753"
       x2="87.260849"
       y2="1.2385538"
       id="l1"
       gradientUnits="userSpaceOnUse">
      <stop
         style="stop-color:#e92203;stop-opacity:1"
         offset="0"
         id="stop5" />
      <stop
         style="stop-color:#ff0000;stop-opacity:0.64628822"
         offset="1"
         id="stop7" />
    </linearGradient>
    <linearGradient
       gradientTransform="matrix(0.08400469,0,0,0.08400469,0.8422306,2.0814238)"
       x1="87.101639"
       y1="121.69753"
       x2="87.260849"
       y2="1.2385538"
       id="l1-2"
       gradientUnits="userSpaceOnUse">
      <stop
         style="stop-color:#e92203;stop-opacity:1"
         offset="0"
         id="stop5-8" />
      <stop
         style="stop-color:#ff0000;stop-opacity:0.64628822"
         offset="1"
         id="stop7-4" />
    </linearGradient>
    <clipPath
       style="clip-rule:evenodd"
       id="clip">
      <path
         inkscape:connector-curvature="0"
         d="m 0,62 142,0 0,1 a 19,17 0 0 1 19,17 l 0,144 -36,0 0,-144 A 45,43 0 0 0 80,37 l 0,26 a 19,17 0 0 1 19,17 l 0,144 -37,0 0,-144 A 45,43 0 0 0 17,37 l 0,26 a 19,17 0 0 1 19,17 l 0,144 -36,0"
         id="path9" />
    </clipPath>
    <clipPath
       style="clip-rule:evenodd"
       id="clip-3">
      <path
         inkscape:connector-curvature="0"
         d="m 0,62 142,0 0,1 c 10.49341,0 19,7.611159 19,17 l 0,144 -36,0 0,-144 C 125,56.251756 104.85281,37 80,37 l 0,26 c 10.49341,0 19,7.611159 19,17 l 0,144 -37,0 0,-144 C 62,56.251756 41.852814,37 17,37 l -19.4659076,6.047445 c 10.4934102,0 39.5295186,70.389145 39.4392026,79.777555 L 36,224 0,224"
         id="path9-6"
         sodipodi:nodetypes="cccsccsccsccsccscc" />
    </clipPath>
    <clipPath
       clipPathUnits="userSpaceOnUse"
       id="clipPath4241">
      <path
         style="color:#000000;font-style:normal;font-variant:normal;font-weight:normal;font-stretch:normal;font-size:medium;line-height:normal;font-family:sans-serif;text-indent:0;text-align:start;text-decoration:none;text-decoration-line:none;text-decoration-style:solid;text-decoration-color:#000000;letter-spacing:normal;word-spacing:normal;text-transform:none;direction:ltr;block-progression:tb;writing-mode:lr-tb;baseline-shift:baseline;text-anchor:start;white-space:normal;clip-rule:nonzero;display:inline;overflow:visible;visibility:visible;opacity:1;isolation:auto;mix-blend-mode:normal;color-interpolation:sRGB;color-interpolation-filters:linearRGB;solid-color:#000000;solid-opacity:1;fill:#f78f1e;fill-opacity:1;fill-rule:nonzero;stroke:none;stroke-width:1.1890316;stroke-linecap:butt;stroke-linejoin:miter;stroke-miterlimit:4;stroke-dasharray:none;stroke-dashoffset:0;stroke-opacity:1;color-rendering:auto;image-rendering:auto;shape-rendering:auto;text-rendering:auto;enable-background:accumulate"
         d="m 14.951172,5.6171875 0,1.1894531 1.189724,4.0473644 c 0.22222,0.755979 1.557608,-1.2390936 2.119845,-0.687028 l -1.216421,3.99855 5.104118,-1.349121 -2.897294,-5.4803727 C 18.582537,6.0713293 20.39326,2.308458 19.17089,3.0516451 Z"
         id="path4243"
         inkscape:connector-curvature="0"
         sodipodi:nodetypes="ccssccssc" />
    </clipPath>
    <clipPath
       style="clip-rule:evenodd"
       id="clip-5">
      <path
         inkscape:connector-curvature="0"
         d="m 0,62 142,0 0,1 a 19,17 0 0 1 19,17 l 0,144 -36,0 0,-144 A 45,43 0 0 0 80,37 l 0,26 a 19,17 0 0 1 19,17 l 0,144 -37,0 0,-144 A 45,43 0 0 0 17,37 l 0,26 a 19,17 0 0 1 19,17 l 0,144 -36,0"
         id="path9-62" />
    </clipPath>
  </defs>
  <sodipodi:namedview
     pagecolor="#ffffff"
     bordercolor="#666666"
     borderopacity="1"
     objecttolerance="10"
     gridtolerance="10"
     guidetolerance="10"
     inkscape:pageopacity="0"
     inkscape:pageshadow="2"
     inkscape:window-width="1920"
     inkscape:window-height="1006"
     id="namedview11"
     showgrid="true"
     inkscape:zoom="31.971557"
     inkscape:cx="9.9350456"
     inkscape:cy="11.233811"
     inkscape:window-x="1920"
     inkscape:window-y="0"
     inkscape:window-maximized="1"
     inkscape:current-layer="svg2"
     showguides="false"
     inkscape:snap-global="false">
    <sodipodi:guide
       position="0,0"
       orientation="0,580"
       id="guide2989" />
    <sodipodi:guide
       position="580,0"
       orientation="-580,0"
       id="guide2991" />
    <sodipodi:guide
       position="580,580"
       orientation="0,-580"
       id="guide2993" />
    <sodipodi:guide
       position="0,580"
       orientation="580,0"
       id="guide2995" />
    <sodipodi:guide
       position="0,0"
       orientation="0,580"
       id="guide2997" />
    <sodipodi:guide
       position="580,0"
       orientation="-580,0"
       id="guide2999" />
    <sodipodi:guide
       position="580,580"
       orientation="0,-580"
       id="guide3001" />
    <sodipodi:guide
       position="0,580"
       orientation="580,0"
       id="guide3003" />
    <inkscape:grid
       type="xygrid"
       id="grid3013"
       empspacing="5"
       visible="true"
       enabled="true"
       snapvisiblegridlinesonly="true" />
  </sodipodi:namedview>
  <metadata
     id="metadata2975">image/svg+xmlen<rdf:RDF>
  <cc:Work
     rdf:about="">
    <dc:format>image/svg+xml</dc:format>
    <dc:type
       rdf:resource="http://purl.org/dc/dcmitype/StillImage" />
    <dc:title></dc:title>
  </cc:Work>
</rdf:RDF>
</metadata>
  <path
     style="color:#000000;font-style:normal;font-variant:normal;font-weight:normal;font-stretch:normal;font-size:medium;line-height:normal;font-family:sans-serif;text-indent:0;text-align:start;text-decoration:none;text-decoration-line:none;text-decoration-style:solid;text-decoration-color:#000000;letter-spacing:normal;word-spacing:normal;text-transform:none;direction:ltr;block-progression:tb;writing-mode:lr-tb;baseline-shift:baseline;text-anchor:start;white-space:normal;clip-rule:nonzero;display:inline;overflow:visible;visibility:visible;opacity:1;isolation:auto;mix-blend-mode:normal;color-interpolation:sRGB;color-interpolation-filters:linearRGB;solid-color:#000000;solid-opacity:1;fill:#fefefe;fill-opacity:1;fill-rule:nonzero;stroke:none;stroke-width:1.1890316;stroke-linecap:butt;stroke-linejoin:miter;stroke-miterlimit:4;stroke-dasharray:none;stroke-dashoffset:0;stroke-opacity:1;color-rendering:auto;image-rendering:auto;shape-rendering:auto;text-rendering:auto;enable-background:accumulate"
     d="M 4.4003906,3.6699219 C 3.9968395,3.6696215 3.6696215,3.9968395 3.6699219,4.4003906 l 0,1.1894532 c 8.188e-4,0.1417534 0.042896,0.2802011 0.1210937,0.3984374 -0.088223,0.1230425 -0.1360018,0.270474 -0.1367187,0.421875 l 0,0.015625 0,5.1894528 c -3.005e-4,0.403551 0.3269175,0.730769 0.7304687,0.730469 7.2087114,-0.01708 0.023235,-0.01563 7.2148434,-0.01563 0.403551,3.01e-4 0.73077,-0.326918 0.730469,-0.730469 l 0,-4.5957028 c 10e-7,-1.8295125 -1.504472,-3.3339845 -3.3339842,-3.3339843 z"
     id="path4274"
     inkscape:connector-curvature="0"
     sodipodi:nodetypes="ccccccccccssc" />
  <path
     inkscape:connector-curvature="0"
     style="fill:none;stroke:#f78f1e;stroke-width:1.1890316;stroke-linecap:butt"
     d="m 4.4007695,4.9952854 4.5954461,0 a 2.0084992,2.0084992 0 0 1 2.0084994,2.0084994 l 0,4.5954462"
     id="path6" />
  <rect
     style="fill:#f78f1e"
     x="0"
     y="63"
     width="161"
     height="161"
     clip-path="url(#clip)"
     id="rect11"
     transform="matrix(0.03213598,0,0,0.03213598,4.4007695,4.4007696)" />
</svg>

<svg width="16" height="16" viewBox="0 0 16 16" fill="none" xmlns="http://www.w3.org/2000/svg">
<path d="M4.40039 3.66993C3.99684 3.66963 3.66962 3.99684 3.66992 4.4004V5.58985C3.67074 5.7316 3.71282 5.87005 3.79102 5.98829C3.70279 6.11133 3.65501 6.25876 3.6543 6.41016V6.42579V11.6152C3.654 12.0188 3.98121 12.346 4.38477 12.3457C11.5935 12.3286 4.408 12.3301 11.5996 12.3301C12.0032 12.3304 12.3304 12.0032 12.3301 11.5996V7.00391C12.3301 5.17439 10.8256 3.66992 8.99609 3.66992L4.40039 3.66993Z" fill="#FEFEFE"/>
<path d="M4.40076 4.9953H8.9962C9.25996 4.9953 9.52114 5.04725 9.76482 5.14819C10.0085 5.24912 10.2299 5.39707 10.4164 5.58358C10.6029 5.77008 10.7509 5.9915 10.8518 6.23518C10.9528 6.47886 11.0047 6.74004 11.0047 7.0038V11.5992" stroke="#F78F1E" stroke-width="1.18903"/>
<path d="M9.57465 6.42532H4.40076V11.5992H9.57465V6.42532Z" fill="#F78F1E"/>
</svg>
